X: 1
T: Farewell To Leitrim
M: 4/4
L: 1/8
S: Altan: Blackwater
R: reel
K: Dmix
d2AG FADF|Ec~c2 Ec~c2|dBcA BGAG|F2EF DEFA|
d2AG FADF|(3EFG AB c2Bc|dBcA BGAF|GFEG FDDe||
fd~d2 fdad|fd~d2 ^cdeg|fd~d2 fdad|^cdeg fdde|
fd~d2 adfd|ec~c2 gceg|afge fded|^ceaf g2fe||
